X:1
T: The Lakeside Road
C:
R:Reel
Q: 232
K:G
M:4/4
L:1/8
|:DF|G2 GF GB dB|cd ef gf ge|dB GB dB GB|AB cA GF ED|
G2 GF GB dB|cd ef gf ge|dg ec Bc AF|G2 GG G2:|
|:Bc|d2 Bd Gd Bd|e2 ce Ae ce|d2 Bd Gd Bg|AF DF AF DF|
d2 Bd Gd Bd|cd ef gf ge|dg dc Bc AF|G2 GG G2:|
